X: 15
T: Montreal, Reel de
R: Reel
M: 4/4
L: 1/8
K: G
"G"b2b2-b2d2|g2g2-g2Bc|d2Bd"(Edim)"e2Bc|"Am"d2c2c4|"D"a2a2-a2g2|f2f2-f2AB||1 c2Acd2AB|
c2B2"G"B4:||2d2^d2e2f2|"G"gagfg4||: "G" BcBA G2B2|BcBAG2D2|B2D2B2D2|
"Am"cdcBA4|"D"ABAGF2A2|ABAGF2D2|1 d2^cde2d2|"G"BcBAB4:|2 "D"d2^cde2f2|"G"gagfg4|]

%%newpage
%%textfont * 14
%%begintext justify
%%32 Bar Reels
%%endtext
